04-tv/tv/seriefans/img/Router.svg

<?xml version="1.0" encoding="UTF-8"?>
<svg width="96px" height="96px" viewBox="0 0 96 96" version="1.1" xmlns="http://www.w3.org/2000/svg" xmlns:xlink="http://www.w3.org/1999/xlink">
    <title>Router</title>
    <g id="Page-2" stroke="none" stroke-width="1" fill="none" fill-rule="evenodd">
        <g id="Icons+Indicators-/-HiFi-Icons-/-router-/-light_theme">
            <g id="router_hifi_hi">
                <rect id="bg" fill-opacity="0" fill="#D8D8D8" x="0" y="0" width="96" height="96"></rect>
                <path d="M64.03,60.365 C62.9254305,60.365 62.03,59.4695695 62.03,58.365 L62.03,30.99 C62.03,29.8854305 62.9254305,28.99 64.03,28.99 C65.1345695,28.99 66.03,29.8854305 66.03,30.99 L66.03,58.365 C66.03,59.4695695 65.1345695,60.365 64.03,60.365 Z" id="Shape" fill="#666666" fill-rule="nonzero"></path>
                <path d="M16.255,57.99 L79.755,57.99 C83.2729439,58.0638185 86.0669572,60.9719188 86,64.49 L86,77.49 C86.0669368,81.0099934 83.2699117,83.9188994 79.75,83.99 L16.25,83.99 C12.7300883,83.9188994 9.93306323,81.0099934 10,77.49 L10,64.49 C9.93308152,60.9680926 12.7331207,58.0583797 16.255,57.99 L16.255,57.99 Z" id="Shape" fill="#EBEBEB" fill-rule="nonzero"></path>
                <g id="Group" opacity="0.06" transform="translate(9.500000, 76.000000)" fill="#000000" fill-rule="nonzero">
                    <path d="M70.235,6.99 L6.735,6.99 C3.21979553,6.91347746 0.430225281,4.00534488 0.5,0.49 L0.5,1.49 C0.466520946,3.18084837 1.10626848,4.81571099 2.27843993,6.0347693 C3.45061138,7.2538276 5.05913888,7.95717102 6.75,7.99 L70.25,7.99 C71.9408611,7.95717102 73.5493886,7.2538276 74.7215601,6.0347693 C75.8937315,4.81571099 76.5334791,3.18084837 76.5,1.49 L76.5,0.49 C76.5334569,2.18340052 75.8916604,3.82050602 74.7162593,5.03999643 C73.5408581,6.25948684 71.9284845,6.96110531 70.235,6.99 Z" id="Shape"></path>
                </g>
                <path d="M80,21.655 C79.731746,21.6565495 79.4741177,21.5502553 79.285,21.36 C70.8287642,12.9252162 57.1412358,12.9252162 48.685,21.36 C48.4286619,21.6154449 48.0555176,21.714731 47.7061268,21.6204582 C47.356736,21.5261853 47.0841795,21.2526759 46.9911268,20.9029582 C46.898074,20.5532404 46.9986619,20.1804449 47.255,19.925 C56.5004755,10.6991724 71.4695245,10.6991724 80.715,19.925 C80.9074127,20.1131405 81.0158755,20.3708913 81.0158755,20.64 C81.0158755,20.9091087 80.9074127,21.1668595 80.715,21.355 C80.5267134,21.547091 80.268981,21.6552305 80,21.655 Z" id="Shape" fill="#E60000" fill-rule="nonzero"></path>
                <path d="M73.77,26.99 C73.6117665,26.9898479 73.4558278,26.9521484 73.315,26.88 C73.2164783,26.8322415 73.1268524,26.7679814 73.05,26.69 C68.0721434,21.7370776 60.0278566,21.7370776 55.05,26.69 C54.8618595,26.8824127 54.6041087,26.9908755 54.335,26.9908755 C54.0658913,26.9908755 53.8081405,26.8824127 53.62,26.69 C53.4260226,26.5016842 53.3165585,26.2428517 53.3165585,25.9725 C53.3165585,25.7021483 53.4260226,25.4433158 53.62,25.255 C59.3893953,19.5071479 68.7206047,19.5071479 74.49,25.255 L74.525,25.29 L74.575,25.35 C74.8279925,25.6531832 74.8788839,26.0768522 74.7048895,26.4313253 C74.5308951,26.7857985 74.1646004,27.0046902 73.77,26.99 Z" id="Shape" fill="#E60000" fill-rule="nonzero"></path>
                <circle id="Oval" fill="#000000" fill-rule="nonzero" opacity="0.06" cx="19.005" cy="71" r="3"></circle>
                <circle id="Oval" fill="#D62B11" fill-rule="nonzero" cx="25.005" cy="71" r="1"></circle>
                <circle id="Oval" fill="#D62B11" fill-rule="nonzero" cx="19.005" cy="71" r="1"></circle>
            </g>
        </g>
    </g>
</svg>

<svg width="96" height="96" viewBox="0 0 96 96" xmlns="http://www.w3.org/2000/svg"><g id="Page-2" stroke="none" stroke-width="1" fill="none" fill-rule="evenodd"><g id="Icons+Indicators-/-HiFi-Icons-/-router-/-light_theme"><g id="router_hifi_hi"><path id="bg" fill-opacity="0" fill="#D8D8D8" d="M0 0h96v96H0z"/><path d="M64.03 60.365a2 2 0 01-2-2V30.99a2 2 0 114 0v27.375a2 2 0 01-2 2z" id="Shape" fill="#666" fill-rule="nonzero"/><path d="M16.255 57.99h63.5A6.38 6.38 0 0186 64.49v13a6.38 6.38 0 01-6.25 6.5h-63.5a6.38 6.38 0 01-6.25-6.5v-13a6.38 6.38 0 016.255-6.5z" id="Shape" fill="#EBEBEB" fill-rule="nonzero"/><g id="Group" opacity=".06" transform="translate(9.5 76)" fill="#000" fill-rule="nonzero"><path d="M70.235 6.99h-63.5A6.375 6.375 0 01.5.49v1a6.375 6.375 0 006.25 6.5h63.5a6.375 6.375 0 006.25-6.5v-1a6.375 6.375 0 01-6.265 6.5z" id="Shape"/></g><path d="M80 21.655a1 1 0 01-.715-.295c-8.456-8.435-22.144-8.435-30.6 0a1.013 1.013 0 11-1.43-1.435c9.245-9.226 24.215-9.226 33.46 0a1 1 0 010 1.43 1 1 0 01-.715.3z" id="Shape" fill="#E60000" fill-rule="nonzero"/><path d="M73.77 26.99a1 1 0 01-.455-.11.96.96 0 01-.265-.19c-4.978-4.953-13.022-4.953-18 0a1 1 0 01-1.43 0 1 1 0 010-1.435c5.77-5.748 15.1-5.748 20.87 0l.035.035.05.06a1 1 0 01-.805 1.64z" id="Shape" fill="#E60000" fill-rule="nonzero"/><circle id="Oval" fill="#000" fill-rule="nonzero" opacity=".06" cx="19.005" cy="71" r="3"/><circle id="Oval" fill="#D62B11" fill-rule="nonzero" cx="25.005" cy="71" r="1"/><circle id="Oval" fill="#D62B11" fill-rule="nonzero" cx="19.005" cy="71" r="1"/></g></g></g></svg>
